static/assets/images/networks/okc.svg

<svg xmlns="http://www.w3.org/2000/svg" fill="none" viewBox="0 0 512 512"><path fill="#000" d="M256 512c141.385 0 256-114.615 256-256S397.385 0 256 0 0 114.615 0 256s114.615 256 256 256"/><path fill="#fff" fill-rule="evenodd" d="M201.693 114.688h-81.508c-3.726 0-6.521 2.795-6.521 6.521v81.508c0 3.726 2.795 6.52 6.521 6.52h81.508c3.726 0 6.52-2.794 6.52-6.52v-81.508c0-3.726-2.794-6.521-6.52-6.521m95.015 94.549h-81.974c-3.726 0-6.521 2.795-6.521 6.521v81.508c0 3.726 2.795 6.521 6.521 6.521h81.974c3.26 0 6.055-2.795 6.055-6.521v-81.508c0-3.726-2.795-6.521-6.055-6.521m12.575-94.549h81.508c3.726 0 6.521 2.795 6.521 6.521v81.508c0 3.726-2.795 6.52-6.521 6.52h-81.508c-3.726 0-6.52-2.794-6.52-6.52v-81.508c0-3.726 2.794-6.521 6.52-6.521m-107.59 189.099h-81.508c-3.726 0-6.521 2.794-6.521 6.52v81.508c0 3.726 2.795 6.521 6.521 6.521h81.508c3.726 0 6.52-2.795 6.52-6.521v-81.508c0-3.726-2.794-6.52-6.52-6.52m107.59 0h81.508c3.726 0 6.521 2.794 6.521 6.52v81.508c0 3.726-2.795 6.521-6.521 6.521h-81.508c-3.726 0-6.52-2.795-6.52-6.521v-81.508c0-3.726 2.794-6.52 6.52-6.52" clip-rule="evenodd"/></svg>

<svg width="512" height="512" viewBox="0 0 512 512" fill="none" xmlns="http://www.w3.org/2000/svg">
<path d="M256 512C397.385 512 512 397.385 512 256C512 114.615 397.385 0 256 0C114.615 0 0 114.615 0 256C0 397.385 114.615 512 256 512Z" fill="black"/>
<path fill-rule="evenodd" clip-rule="evenodd" d="M201.693 114.688H120.185C116.459 114.688 113.664 117.483 113.664 121.209V202.717C113.664 206.443 116.459 209.237 120.185 209.237H201.693C205.419 209.237 208.213 206.443 208.213 202.717V121.209C208.213 117.483 205.419 114.688 201.693 114.688ZM296.708 209.237H214.734C211.008 209.237 208.213 212.032 208.213 215.758V297.266C208.213 300.992 211.008 303.787 214.734 303.787H296.708C299.968 303.787 302.763 300.992 302.763 297.266V215.758C302.763 212.032 299.968 209.237 296.708 209.237ZM309.283 114.688H390.791C394.517 114.688 397.312 117.483 397.312 121.209V202.717C397.312 206.443 394.517 209.237 390.791 209.237H309.283C305.557 209.237 302.763 206.443 302.763 202.717V121.209C302.763 117.483 305.557 114.688 309.283 114.688ZM201.693 303.787H120.185C116.459 303.787 113.664 306.581 113.664 310.307V391.815C113.664 395.541 116.459 398.336 120.185 398.336H201.693C205.419 398.336 208.213 395.541 208.213 391.815V310.307C208.213 306.581 205.419 303.787 201.693 303.787ZM309.283 303.787H390.791C394.517 303.787 397.312 306.581 397.312 310.307V391.815C397.312 395.541 394.517 398.336 390.791 398.336H309.283C305.557 398.336 302.763 395.541 302.763 391.815V310.307C302.763 306.581 305.557 303.787 309.283 303.787Z" fill="white"/>
</svg>
